libs/ui/packages/crypto-icons/src/svg/currency_stacks.svg

<svg xmlns="http://www.w3.org/2000/svg" xmlns:xlink="http://www.w3.org/1999/xlink" width="24" height="24" viewBox="0 0 24 24" version="1.1">
	<g>
		<path d="M 14.308594 14.109375 L 16.820312 17.910156 L 14.941406 17.910156 L 11.996094 13.445312 L 9.046875 17.910156 L 7.179688 17.910156 L 9.691406 14.121094 L 6.089844 14.121094 L 6.089844 12.679688 L 17.910156 12.679688 L 17.910156 14.109375 Z M 14.308594 14.109375 " fill="#5546ff"/>
		<path d="M 17.910156 9.839844 L 17.910156 11.289062 L 6.089844 11.289062 L 6.089844 9.839844 L 9.621094 9.839844 L 7.140625 6.089844 L 9.015625 6.089844 L 11.996094 10.617188 L 14.984375 6.089844 L 16.859375 6.089844 L 14.378906 9.839844 Z M 17.910156 9.839844 " fill="#5546ff"/>
	</g>
</svg>

<svg xmlns="http://www.w3.org/2000/svg" width="24" height="24" viewBox="0 0 24 24"><path fill="#5546ff" d="m14.309 14.11 2.511 3.8h-1.879l-2.945-4.465-2.95 4.465H7.18l2.511-3.789H6.09V12.68h11.82v1.43Zm3.601-4.27v1.45H6.09V9.84h3.53L7.14 6.09h1.875l2.98 4.527 2.988-4.527h1.875l-2.48 3.75Zm0 0"/></svg>
